resources/svg/divider-line.svg

<svg viewBox="0 0 15 15" fill="none" xmlns="http://www.w3.org/2000/svg" fill="currentColor"><path fill-rule="evenodd" clip-rule="evenodd" d="M12 2H3V1h9v1zm-2 3H3V4h7v1zm5 3H0V7h15v1zm-3 3H3v-1h9v1zm-2 3H3v-1h7v1z" fill="currentColor"/></svg>

<svg width="15" height="15" viewBox="0 0 15 15" fill="none" xmlns="http://www.w3.org/2000/svg">
<path fill-rule="evenodd" clip-rule="evenodd" d="M12 2H3V1H12V2ZM10 5H3V4H10V5ZM15 8H0V7H15V8ZM12 11H3V10H12V11ZM10 14H3V13H10V14Z" fill="black"/>
</svg>
